icons/duplicate-17.svg

<svg width="16" height="17" viewBox="0 0 16 17" fill="none" xmlns="http://www.w3.org/2000/svg">
<path fill-rule="evenodd" clip-rule="evenodd" d="M2 7.22888C2 6.50401 2.58763 5.91638 3.3125 5.91638H4.4375C4.74816 5.91638 5 6.16822 5 6.47888C5 6.78954 4.74816 7.04138 4.4375 7.04138H3.3125C3.20895 7.04138 3.125 7.12533 3.125 7.22888V12.8539C3.125 12.9574 3.20895 13.0414 3.3125 13.0414H8.9375C9.04105 13.0414 9.125 12.9574 9.125 12.8539V11.7289C9.125 11.4182 9.37684 11.1664 9.6875 11.1664C9.99816 11.1664 10.25 11.4182 10.25 11.7289V12.8539C10.25 13.5788 9.66237 14.1664 8.9375 14.1664H3.3125C2.58763 14.1664 2 13.5788 2 12.8539V7.22888Z" fill="#272431"/>
<path fill-rule="evenodd" clip-rule="evenodd" d="M5.75 3.47888C5.75 2.75401 6.33763 2.16638 7.0625 2.16638H12.6875C13.4124 2.16638 14 2.75401 14 3.47888V9.10388C14 9.82876 13.4124 10.4164 12.6875 10.4164H7.0625C6.33763 10.4164 5.75 9.82876 5.75 9.10388V3.47888ZM7.0625 3.29138C6.95895 3.29138 6.875 3.37533 6.875 3.47888V9.10388C6.875 9.20744 6.95895 9.29138 7.0625 9.29138H12.6875C12.7911 9.29138 12.875 9.20744 12.875 9.10388V3.47888C12.875 3.37533 12.7911 3.29138 12.6875 3.29138H7.0625Z" fill="#272431"/>
</svg>

<svg xmlns="http://www.w3.org/2000/svg" width="16" height="17" viewBox="0 0 16 17"><path fill-rule="evenodd" d="M2 7.229c0-.725.588-1.313 1.313-1.313h1.124a.563.563 0 010 1.125H3.313a.188.188 0 00-.187.188v5.625c0 .103.084.187.188.187h5.624a.188.188 0 00.188-.187v-1.125a.562.562 0 111.125 0v1.125c0 .725-.588 1.312-1.313 1.312H3.314A1.312 1.312 0 012 12.854V7.229z"/><path fill-rule="evenodd" d="M5.75 3.479c0-.725.588-1.313 1.313-1.313h5.625c.724 0 1.312.588 1.312 1.313v5.625c0 .725-.588 1.312-1.313 1.312H7.064A1.313 1.313 0 015.75 9.104V3.479zm1.313-.188a.188.188 0 00-.188.188v5.625c0 .103.084.187.188.187h5.625a.187.187 0 00.187-.187V3.479a.187.187 0 00-.188-.188H7.064z"/></svg>
